**kern	**kern	**kern	**kern
*staff4	*staff3	*staff2	*staff1
*clefF4	*clefF4	*clefG2	*clefG2
*k[f#]	*k[f#]	*k[f#]	*k[f#]
*M2/4	*M2/4	*M2/4	*M2/4
*G:	*G:	*G:	*G:
=-	=-	=-	=-
8r	24BLL	8r	8r
.	24A#	.	.
.	24AJJ	.	.
=46	=46	=46	=46
4EE	24GLL	4g 4b	4ee
.	24B	.	.
.	24AJ	.	.
.	24GL	.	.
.	24F#	.	.
.	24EJJ	.	.
4BB	24D#LL	4a 4b	16ff#LL
.	24A	.	.
.	.	.	(32ff#L
.	24GJ	.	.
.	.	.	32eeJ
.	24F#L	.	16ff#)
.	24E	.	.
.	.	.	16ggJJ
.	24D#JJ	.	.
=47	=47	=47	=47
8EE	24ELL	8g 8b	8ee
.	24B	.	.
.	24AJ	.	.
8r	24GL	8r	8r
.	24F#	.	.
.	24EJJ	.	.
*	*	*^	*
4GGG 4GG	24DLL	4b	4g	16ffLL
.	24d	.	.	.
.	.	.	.	(32ffL
.	24cJ	.	.	.
.	.	.	.	32eeJ
.	24BL	.	.	16ff)
.	24A	.	.	.
.	.	.	.	16ggJJ
.	24GJJ	.	.	.
=48	=48	=48	=48	=48
8CL	24GLL	8cc	8gL	8eeL
.	24c	.	.	.
.	24EJ	.	.	.
8AAJ	24cL	4dd	(8ccJ	8ff#J
.	24d	.	.	.
.	24DJJ	.	.	.
8BBL	24BLL	.	8bL	16ggLL
.	24d	.	.	.
.	.	.	.	(32ggL
.	24DJ	.	.	.
.	.	.	.	32ff#J
8C#J	24AL	8ee	8aJ)	16gg)
.	24e	.	.	.
.	.	.	.	16aaJJ
.	24EJJ	.	.	.
*	*	*v	*v	*
=49	=49	=49	=49
2D	24GLL	(4b [4dd	(4gg
.	24A	.	.
.	24B-J	.	.
.	24BL	.	.
.	24c	.	.
.	24c#JJ	.	.
.	24dLL	8a) 8dd]	8ff#L)
.	24c#	.	.
.	24cJ	.	.
.	24BL	8r	(8dddJ
.	24B-	.	.
.	24AJJ	.	.
=50	=50	=50	=50
2DD	24G#LL	8r	4.ee)
.	24F	.	.
.	24EJ	.	.
.	24DL	(8g# 8dd	.
.	24C	.	.
.	24BBJJ	.	.
.	24AALL	8a) 8cc	.
.	24C	.	.
.	24EJ	.	.
.	24G#L	8r	(8eee
.	24A	.	.
.	24cJJ	.	.
=51	=51	=51	=51
4.DD 4.D	24e-LL	8r	[4ff#)
.	24d	.	.
.	24cJ	.	.
.	24B-L	([8cc 8ee-	.
.	24A	.	.
.	24GJJ	.	.
.	24F#LL	8cc]) 8dd	(16.ff#LL]
.	24E	.	.
.	24DJ	.	.
.	.	.	32aak
8r	24CL	8r	16.ccc
.	24BB	.	.
.	24AAJJ	.	.
.	.	.	32ff#JJk
=	=	=	=
*-	*-	*-	*-
